X:1
T:Title
%%score { ( 1 3 ) | ( 2 4 5 ) }
L:1/8
M:4/4
K:E
V:1 treble nm="Grand Piano"
V:3 treble 
V:2 bass 
V:4 bass 
V:5 bass 
V:1
 z4 z2[Q:1/4=100] EF | G3 G B2 E2 | GFED E2 G[FA] | [GB]3 [GB] [Ac][GB]GE | [DF]6 [DF][EG] | %5
 [FA]2 [FA]2 [FA][Ac][GB][FA] | [EG]2 [EG]2 [GB]2 [Gc]2 | d3 B c2 ^A2 |[M:3/4] [DB]6 |[M:1/4] z A | %10
[M:4/4] [Ge]2 [Ge]2 [Ge][Bd][Ac][GB] | c2 c2 c2 ec | [GB]3 [GB] [Ac][GB]GE | %13
[M:9/8] [DF]2 [EG]- [EG] [DF]2- [DF]EF |[M:4/4] G3 G AGFE | G2 [GB]2 [GB]3 [GB] | %16
[M:19/16] ce/-e/-e-<ec[EGB][B,EG]3/2[^A,E][A,EF] |[M:7/8] [B,EG]2 [A,DF]2 [G,E]3 |] %18
V:2
 z4 z2 [E,G,][E,A,E] | [E,B,E]3 [E,B,E] [E,G,E]2 [E,G,]2 | %2
 [B,,B,][B,,A,B,][B,,G,B,][B,,A,B,] [E,G,B,]2 [E,B,E][E,B,] | %3
 [E,E]3 [E,E] [E,E][E,E][E,B,E][E,G,] | [B,,B,]6 [B,,B,][B,,B,] | %5
 [B,,B,]2 [B,,B,]2 [B,,B,][B,,B,][C,B,][D,B,] | [E,B,]2 [E,B,]2 [E,B,]2 [E,B,]2 | %7
 [F,B,F]3 [F,B,D] [F,^A,E]2 [F,CE]2 |[M:3/4] z2 z2 B,2 |[M:1/4] G,F, | %10
[M:4/4] [E,B,]2 [E,B,]2 [E,B,][E,E][E,E][E,E] | [A,EA]2 [A,EA]2 [A,EA]2 [A,A]-[A,EA] | %12
 [E,E]3 [E,E] [E,E][E,E][E,B,E][E,G,] | %13
[M:9/8] [B,,B,]2 [B,,B,]- [B,,B,] [B,,B,]2- [B,,B,][E,G,][E,A,E] | %14
[M:4/4] [E,B,E]3 [E,B,E] [E,CE][E,B,E][E,A,E][E,G,] | [E,B,E]2 [E,E]2 [E,E]3 [E,E] | %16
[M:19/16][K:treble] [A,EA][A,CA]/-[A,CA]/-[A,CA]-<[A,CA][A,EA][K:bass]E,E,3/2C,C, | %17
[M:7/8] B,,2 B,,2 E,3 |] %18
V:3
 x8 | x8 | x8 | x8 | x8 | x8 | x8 | x8 |[M:3/4] B,4 z2 |[M:1/4] [B,DB]2 |[M:4/4] x8 | x8 | x8 | %13
[M:9/8] x9 |[M:4/4] x8 | x8 |[M:19/16] x19/2 |[M:7/8] x7 |] %18
V:4
 x8 | x8 | x8 | x8 | x8 | x8 | x8 | x8 |[M:3/4] .B,,2 D,F, z A, |[M:1/4] x2 |[M:4/4] x8 | %11
 z4 z2 .C2 | x8 |[M:9/8] x9 |[M:4/4] x8 | x8 |[M:19/16][K:treble] x5[K:bass] x9/2 |[M:7/8] x7 |] %18
V:5
 x8 | x8 | x8 | x8 | x8 | x8 | x8 | x8 |[M:3/4] z B,,- B,,4 |[M:1/4] x2 |[M:4/4] x8 | x8 | x8 | %13
[M:9/8] x9 |[M:4/4] x8 | x8 |[M:19/16][K:treble] x5[K:bass] x9/2 |[M:7/8] x7 |] %18

